luts/Feed2026.cube
# Created by PresetStudio - DNG / XMP ⇄ 3D LUT (.cube) Maker, Converter & Profiler
# Compatible with DaVinci Resolve, Adobe Premiere Pro, Final Cut Pro, CapCut, OBS Studio, Photoshop
TITLE "Feed 2026"
LUT_3D_SIZE 9
DOMAIN_MIN 0.0 0.0 0.0
DOMAIN_MAX 1.0 1.0 1.0
0.033144 0.033144 0.033144
0.148246 0.030496 0.030496
0.263550 0.029976 0.029976
0.376712 0.029756 0.029756
0.483197 0.029639 0.029639
0.579701 0.029569 0.029569
0.668637 0.029522 0.029522
0.753054 0.029487 0.029487
0.835949 0.029459 0.029459
0.030496 0.148246 0.030496
0.148246 0.148246 0.030496
0.263550 0.145565 0.029976
0.376712 0.144450 0.029756
0.483197 0.143858 0.029639
0.579701 0.143503 0.029569
0.668637 0.143264 0.029522
0.753054 0.143089 0.029487
0.835949 0.142950 0.029459
0.029976 0.263550 0.029976
0.145565 0.263550 0.029976
0.263550 0.263550 0.029976
0.376712 0.261520 0.029756
0.483197 0.260444 0.029639
0.579701 0.259799 0.029569
0.668637 0.259365 0.029522
0.753054 0.259045 0.029487
0.835949 0.258792 0.029459
0.029756 0.376712 0.029756
0.144450 0.376712 0.029756
0.261520 0.376712 0.029756
0.376712 0.376712 0.029756
0.483197 0.375159 0.029639
0.579701 0.374229 0.029569
0.668637 0.373602 0.029522
0.753054 0.373141 0.029487
0.835949 0.372776 0.029459
0.029639 0.483197 0.029639
0.143858 0.483197 0.029639
0.260444 0.483197 0.029639
0.375159 0.483197 0.029639
0.483197 0.483197 0.029639
0.579701 0.481998 0.029569
0.668637 0.481190 0.029522
0.753054 0.480595 0.029487
0.835516 0.476292 0.025748
0.029569 0.579701 0.029569
0.143503 0.579701 0.029569
0.259799 0.579701 0.029569
0.374229 0.579701 0.029569
0.481743 0.579293 0.025833
0.575874 0.575874 0.025835
0.665023 0.575009 0.025798
0.749546 0.574375 0.025771
0.832438 0.573875 0.025749
0.029522 0.668637 0.029522
0.139301 0.668218 0.025797
0.255230 0.665023 0.025798
0.369470 0.665023 0.025798
0.477246 0.665023 0.025798
0.575009 0.665023 0.025798
0.664595 0.664595 0.022082
0.749111 0.663961 0.022061
0.828921 0.660256 0.022046
0.025771 0.749546 0.025771
0.139155 0.749546 0.025771
0.254950 0.749546 0.025771
0.369102 0.749111 0.022061
0.472828 0.746028 0.022062
0.570721 0.746028 0.022062
0.660757 0.746028 0.022062
0.746028 0.746028 0.022062
0.828921 0.745463 0.022046
0.022045 0.831997 0.022045
0.135130 0.828921 0.022046
0.250666 0.828921 0.022046
0.364702 0.828921 0.022046
0.472470 0.828921 0.022046
0.566826 0.828921 0.022046
0.657293 0.826288 0.025750
0.742721 0.826288 0.025750
0.826720 0.826720 0.029462
0.030496 0.030496 0.148246
0.148246 0.030496 0.148246
0.263550 0.029976 0.145565
0.376712 0.029756 0.144450
0.483197 0.029639 0.143858
0.579701 0.029569 0.143503
0.668637 0.029522 0.143264
0.753054 0.029487 0.143089
0.835949 0.029459 0.142950
0.030496 0.148246 0.148246
0.145598 0.145598 0.145598
0.266109 0.139871 0.139871
0.381805 0.137116 0.137116
0.489778 0.135512 0.135512
0.587231 0.134492 0.134492
0.676833 0.133779 0.133779
0.761755 0.133239 0.133239
0.845059 0.132802 0.132802
0.029976 0.263550 0.145565
0.139871 0.266109 0.139871
0.266109 0.266109 0.139871
0.381805 0.260450 0.137116
0.489778 0.257226 0.135512
0.587231 0.255198 0.134492
0.676833 0.253786 0.133779
0.761755 0.252722 0.133239
0.845059 0.251864 0.132802
0.029756 0.376712 0.144450
0.137116 0.381805 0.137116
0.260450 0.381805 0.137116
0.381805 0.381805 0.137116
0.489778 0.376988 0.135512
0.587231 0.373967 0.134492
0.676833 0.371869 0.133779
0.761755 0.370287 0.133239
0.845059 0.369016 0.132802
0.029639 0.483197 0.143858
0.135512 0.489778 0.135512
0.257226 0.489778 0.135512
0.376988 0.489778 0.135512
0.489778 0.489778 0.135512
0.587231 0.485823 0.134492
0.676833 0.483077 0.133779
0.761755 0.481010 0.133239
0.844800 0.475530 0.128836
0.029569 0.579701 0.143503
0.134492 0.587231 0.134492
0.255198 0.587231 0.134492
0.373967 0.587231 0.134492
0.485774 0.587057 0.130442
0.583610 0.583610 0.130471
0.673408 0.580328 0.129785
0.758422 0.577866 0.129267
0.841709 0.575892 0.128850
0.029522 0.668637 0.143264
0.129763 0.676623 0.129763
0.249656 0.673408 0.129785
0.367788 0.673408 0.129785
0.479235 0.673408 0.129785
0.580328 0.673408 0.129785
0.673193 0.673193 0.125779
0.758180 0.667069 0.125288
0.838357 0.664913 0.124906
0.025771 0.749546 0.139155
0.129267 0.758422 0.129267
0.248621 0.758422 0.129267
0.362141 0.758180 0.125288
0.473392 0.755082 0.125304
0.574327 0.755082 0.125304
0.667161 0.755082 0.125304
0.755082 0.755082 0.125304
0.838089 0.752347 0.120958
0.022045 0.831997 0.135126
0.124906 0.838357 0.124906
0.243717 0.838357 0.124906
0.360983 0.838357 0.124906
0.471888 0.838089 0.120958
0.568825 0.838089 0.120958
0.661567 0.835003 0.120971
0.749240 0.835003 0.120971
0.834729 0.834729 0.117033
0.029976 0.029976 0.263550
0.145565 0.029976 0.263550
0.263550 0.029976 0.263550
0.376712 0.029756 0.261520
0.483197 0.029639 0.260444
0.579701 0.029569 0.259799
0.668637 0.029522 0.259365
0.753054 0.029487 0.259045
0.835949 0.029459 0.258792
0.029976 0.145565 0.263550
0.139871 0.139871 0.266109
0.266109 0.139871 0.266109
0.381805 0.137116 0.260450
0.489778 0.135512 0.257226
0.587231 0.134492 0.255198
0.676833 0.133779 0.253786
0.761755 0.133239 0.252722
0.845059 0.132802 0.251864
0.029976 0.263550 0.263550
0.139871 0.266109 0.266109
0.260382 0.260382 0.260382
0.380054 0.253652 0.253652
0.490377 0.249697 0.249697
0.589395 0.247113 0.247113
0.680133 0.245263 0.245263
0.765596 0.244181 0.244181
0.845685 0.246960 0.246960
0.029756 0.376712 0.261520
0.137116 0.381805 0.260450
0.253652 0.380054 0.253652
0.380054 0.380054 0.253652
0.490377 0.373644 0.249697
0.589395 0.369548 0.247113
0.680133 0.366645 0.245263
0.765596 0.364607 0.244181
0.845685 0.365204 0.246960
0.029639 0.483197 0.260444
0.135512 0.489778 0.257226
0.249697 0.490377 0.249697
0.373644 0.490377 0.249697
0.490377 0.490377 0.249697
0.589395 0.484856 0.247113
0.680133 0.480962 0.245263
0.765658 0.478171 0.239871
0.842783 0.472758 0.242537
0.029569 0.579701 0.259799
0.134492 0.587231 0.255198
0.247113 0.589395 0.247113
0.369548 0.589395 0.247113
0.480884 0.589395 0.242865
0.585899 0.585899 0.242943
0.676834 0.581126 0.241121
0.762643 0.577470 0.239806
0.842783 0.574134 0.242537
0.025797 0.668218 0.259509
0.129785 0.673408 0.249656
0.241121 0.676834 0.241121
0.362586 0.676834 0.241121
0.477179 0.676834 0.241121
0.581126 0.676834 0.241121
0.676783 0.676783 0.236922
0.759514 0.669294 0.235604
0.839882 0.664358 0.238113
0.025771 0.749546 0.254950
0.129267 0.758422 0.248621
0.239806 0.762643 0.239806
0.356278 0.762642 0.235558
0.470458 0.759514 0.235604
0.574033 0.759514 0.235604
0.669294 0.759514 0.235604
0.759514 0.759514 0.235604
0.839915 0.749851 0.233828
0.022045 0.831997 0.250660
0.124906 0.838357 0.243717
0.238113 0.839882 0.238113
0.356786 0.839882 0.238113
0.469054 0.839915 0.233828
0.567320 0.836980 0.233690
0.661234 0.836980 0.233690
0.750075 0.836980 0.233690
0.837014 0.837014 0.229402
0.029756 0.029756 0.376712
0.144450 0.029756 0.376712
0.261520 0.029756 0.376712
0.376712 0.029756 0.376712
0.483197 0.029639 0.375159
0.579701 0.029569 0.374229
0.668637 0.029522 0.373602
0.753054 0.029487 0.373141
0.835949 0.029459 0.372776
0.029756 0.144450 0.376712
0.137116 0.137116 0.381805
0.260450 0.137116 0.381805
0.381805 0.137116 0.381805
0.489778 0.135512 0.376988
0.587231 0.134492 0.373967
0.676833 0.133779 0.371869
0.761755 0.133239 0.370287
0.845059 0.132802 0.369016
0.029756 0.261520 0.376712
0.137116 0.260450 0.381805
0.253652 0.253652 0.380054
0.380054 0.253652 0.380054
0.490377 0.249697 0.373644
0.589395 0.247113 0.369548
0.680133 0.245263 0.366645
0.765596 0.244181 0.364607
0.845685 0.246960 0.365204
0.029756 0.376712 0.376712
0.137116 0.381805 0.381805
0.253652 0.380054 0.380054
0.373324 0.373324 0.373324
0.486628 0.366388 0.366388
0.587513 0.361937 0.361937
0.679051 0.359287 0.359287
0.763694 0.359026 0.359026
0.844705 0.360883 0.360883
0.029639 0.483197 0.375159
0.135512 0.489778 0.376988
0.249697 0.490377 0.373644
0.366388 0.486628 0.366388
0.486628 0.486628 0.366388
0.587513 0.480250 0.361937
0.679051 0.475893 0.359287
0.763772 0.469618 0.354852
0.841781 0.469174 0.356634
0.029569 0.579701 0.374229
0.134492 0.587231 0.373967
0.247113 0.589395 0.369548
0.361937 0.587513 0.361937
0.476479 0.584087 0.357850
0.584087 0.584087 0.357850
0.675935 0.578225 0.355115
0.760720 0.573849 0.354825
0.841781 0.571257 0.356634
0.025797 0.668218 0.373589
0.129785 0.673408 0.367788
0.241121 0.676834 0.362586
0.355115 0.675935 0.355115
0.472105 0.675935 0.355115
0.578225 0.675935 0.355115
0.676058 0.676058 0.350887
0.757744 0.666637 0.350615
0.838858 0.662105 0.352378
0.025771 0.749546 0.369063
0.129267 0.758422 0.366243
0.235558 0.762642 0.360652
0.350615 0.757744 0.350615
0.465846 0.757744 0.350615
0.570439 0.757744 0.350615
0.666637 0.757744 0.350615
0.757824 0.757824 0.346423
0.835935 0.748419 0.348115
0.022046 0.828921 0.364702
0.124906 0.838357 0.360983
0.238113 0.839882 0.356786
0.352378 0.838858 0.352378
0.461459 0.838900 0.348224
0.564380 0.835935 0.348115
0.658954 0.835935 0.348115
0.748419 0.835935 0.348115
0.833013 0.833013 0.343845
0.029639 0.029639 0.483197
0.143858 0.029639 0.483197
0.260444 0.029639 0.483197
0.375159 0.029639 0.483197
0.483197 0.029639 0.483197
0.579701 0.029569 0.481998
0.668637 0.029522 0.481190
0.753054 0.029487 0.480595
0.835949 0.029459 0.480126
0.029639 0.143858 0.483197
0.135512 0.135512 0.489778
0.257226 0.135512 0.489778
0.376988 0.135512 0.489778
0.489778 0.135512 0.489778
0.587231 0.134492 0.485823
0.676833 0.133779 0.483077
0.761755 0.133239 0.481010
0.845059 0.132802 0.479348
0.029639 0.260444 0.483197
0.135512 0.257226 0.489778
0.249697 0.249697 0.490377
0.373644 0.249697 0.490377
0.490377 0.249697 0.490377
0.589395 0.247113 0.484856
0.680133 0.245263 0.480962
0.765596 0.244181 0.478023
0.845685 0.246960 0.476565
0.029639 0.375159 0.483197
0.135512 0.376988 0.489778
0.249697 0.373644 0.490377
0.366388 0.366388 0.486628
0.486628 0.366388 0.486628
0.587513 0.361937 0.480250
0.679051 0.359287 0.475893
0.763694 0.359026 0.473482
0.844705 0.360883 0.473018
0.029639 0.483197 0.483197
0.135512 0.489778 0.489778
0.249697 0.490377 0.490377
0.366388 0.486628 0.486628
0.479692 0.479692 0.479692
0.582663 0.473155 0.473155
0.675366 0.469340 0.469340
0.761426 0.463895 0.463895
0.840514 0.464598 0.464598
0.029569 0.579701 0.481998
0.134492 0.587231 0.485823
0.247113 0.589395 0.484856
0.361937 0.587513 0.480250
0.469360 0.579274 0.469360
0.579274 0.579274 0.469360
0.672224 0.573138 0.465522
0.758329 0.569295 0.463912
0.840514 0.567588 0.464598
0.025797 0.668218 0.477224
0.129785 0.673408 0.479235
0.241121 0.676834 0.477179
0.355115 0.675935 0.472105
0.465522 0.672224 0.465522
0.573138 0.672224 0.465522
0.669075 0.669075 0.461688
0.755326 0.663164 0.460051
0.837563 0.659235 0.460691
0.025771 0.749546 0.476720
0.129267 0.758422 0.477209
0.235558 0.762642 0.470362
0.350615 0.757744 0.465846
0.460051 0.755326 0.460051
0.565854 0.755326 0.460051
0.663164 0.755326 0.460051
0.755424 0.755424 0.456155
0.834614 0.746315 0.456769
0.022046 0.828921 0.472470
0.124906 0.838357 0.471805
0.238113 0.839882 0.468936
0.352378 0.838858 0.465314
0.456769 0.834614 0.456769
0.560629 0.834614 0.456769
0.656049 0.834614 0.456769
0.746315 0.834614 0.456769
0.831664 0.831664 0.452834
0.029569 0.029569 0.579701
0.143503 0.029569 0.579701
0.259799 0.029569 0.579701
0.374229 0.029569 0.579701
0.481998 0.029569 0.579701
0.579701 0.029569 0.579701
0.668637 0.029522 0.578730
0.753054 0.029487 0.578014
0.835949 0.029459 0.577449
0.029569 0.143503 0.579701
0.134492 0.134492 0.587231
0.255198 0.134492 0.587231
0.373967 0.134492 0.587231
0.485823 0.134492 0.587231
0.587231 0.134492 0.587231
0.676833 0.133779 0.583900
0.761755 0.133239 0.581392
0.845059 0.132802 0.579376
0.029569 0.259799 0.579701
0.134492 0.255198 0.587231
0.247113 0.247113 0.589395
0.369548 0.247113 0.589395
0.484856 0.247113 0.589395
0.589395 0.247113 0.589395
0.680133 0.245263 0.584602
0.765596 0.244181 0.580846
0.845685 0.246960 0.577525
0.029569 0.374229 0.579701
0.134492 0.373967 0.587231
0.247113 0.369548 0.589395
0.361937 0.361937 0.587513
0.480250 0.361937 0.587513
0.587513 0.361937 0.587513
0.679051 0.359287 0.581608
0.763694 0.359026 0.577249
0.844705 0.360883 0.574680
0.029569 0.481998 0.579701
0.134492 0.485823 0.587231
0.247113 0.484856 0.589395
0.361937 0.480250 0.587513
0.473155 0.473155 0.582663
0.582663 0.473155 0.582663
0.675366 0.469340 0.576548
0.758329 0.463912 0.569295
0.840514 0.464598 0.567588
0.029569 0.579701 0.579701
0.134492 0.587231 0.587231
0.247113 0.589395 0.589395
0.357714 0.587641 0.587641
0.469360 0.579274 0.579274
0.572708 0.572708 0.572708
0.667714 0.566815 0.566815
0.755404 0.563621 0.563621
0.838935 0.562960 0.562960
0.025798 0.665023 0.575009
0.129785 0.673408 0.580328
0.241121 0.676834 0.581126
0.355115 0.675935 0.578225
0.465522 0.672224 0.573138
0.566815 0.667714 0.566815
0.664537 0.664537 0.563364
0.752370 0.658869 0.560145
0.835953 0.655626 0.559439
0.025771 0.749546 0.574375
0.125288 0.758180 0.577810
0.235558 0.762642 0.573915
0.350615 0.757744 0.570439
0.460051 0.755326 0.565854
0.560145 0.752370 0.560145
0.658869 0.752370 0.560145
0.749333 0.749333 0.556658
0.832971 0.743680 0.555908
0.022046 0.828921 0.570289
0.124906 0.838357 0.572396
0.238113 0.839882 0.570733
0.348224 0.838900 0.567945
0.456769 0.834614 0.560629
0.555908 0.832971 0.555908
0.652400 0.832971 0.555908
0.743790 0.833039 0.552391
0.829990 0.829990 0.552368
0.029522 0.029522 0.668637
0.143264 0.029522 0.668637
0.259365 0.029522 0.668637
0.373602 0.029522 0.668637
0.481190 0.029522 0.668637
0.578730 0.029522 0.668637
0.668637 0.029522 0.668637
0.753054 0.029487 0.667810
0.835949 0.029459 0.667157
0.029522 0.143264 0.668637
0.133779 0.133779 0.676833
0.253786 0.133779 0.676833
0.371869 0.133779 0.676833
0.483077 0.133779 0.676833
0.583900 0.133779 0.676833
0.676833 0.133779 0.676833
0.761755 0.133239 0.673919
0.845059 0.132802 0.671576
0.029522 0.259365 0.668637
0.133779 0.253786 0.676833
0.245263 0.245263 0.680133
0.366645 0.245263 0.680133
0.480962 0.245263 0.680133
0.584602 0.245263 0.680133
0.680133 0.245263 0.680133
0.765596 0.244181 0.675623
0.845685 0.246960 0.670585
0.029522 0.373602 0.668637
0.133779 0.371869 0.676833
0.245263 0.366645 0.680133
0.359287 0.359287 0.679051
0.475893 0.359287 0.679051
0.581608 0.359287 0.679051
0.679051 0.359287 0.679051
0.763694 0.359026 0.672896
0.844705 0.360883 0.668387
0.029522 0.481190 0.668637
0.133779 0.483077 0.676833
0.245263 0.480962 0.680133
0.359287 0.475893 0.679051
0.469340 0.469340 0.675366
0.576548 0.469340 0.675366
0.675515 0.465424 0.675515
0.758329 0.463912 0.666326
0.840514 0.464598 0.662415
0.029522 0.578730 0.668637
0.133779 0.583900 0.676833
0.245263 0.584602 0.680133
0.355115 0.578225 0.675935
0.465522 0.573138 0.672224
0.566815 0.566815 0.667714
0.667714 0.566815 0.667714
0.755404 0.563621 0.662062
0.838935 0.562960 0.658846
0.025798 0.665023 0.665023
0.129785 0.673408 0.673408
0.241121 0.676834 0.676834
0.355115 0.675935 0.675935
0.465522 0.672224 0.672224
0.563201 0.667900 0.667900
0.658621 0.658621 0.658621
0.748597 0.653258 0.653258
0.833865 0.650867 0.650867
0.025771 0.749546 0.664290
0.125288 0.758180 0.670393
0.235604 0.759514 0.669294
0.350615 0.757744 0.666637
0.460051 0.755326 0.663164
0.560145 0.752370 0.658869
0.653258 0.748597 0.653258
0.745532 0.745532 0.650033
0.830849 0.740236 0.647604
0.022046 0.828921 0.660256
0.124906 0.838357 0.664913
0.238113 0.839882 0.664358
0.348224 0.838900 0.662199
0.456769 0.834614 0.656049
0.555908 0.832971 0.652400
0.647604 0.830849 0.647604
0.737154 0.827833 0.644334
0.827833 0.827833 0.644334
0.029487 0.029487 0.753054
0.143089 0.029487 0.753054
0.259045 0.029487 0.753054
0.373141 0.029487 0.753054
0.480595 0.029487 0.753054
0.578014 0.029487 0.753054
0.667810 0.029487 0.753054
0.753054 0.029487 0.753054
0.835949 0.029459 0.752317
0.029487 0.143089 0.753054
0.133239 0.133239 0.761755
0.252722 0.133239 0.761755
0.370287 0.133239 0.761755
0.481010 0.133239 0.761755
0.581392 0.133239 0.761755
0.673919 0.133239 0.761755
0.761755 0.133239 0.761755
0.845059 0.132802 0.759103
0.029487 0.259045 0.753054
0.133239 0.252722 0.761755
0.244181 0.244181 0.765596
0.364607 0.244181 0.765596
0.478023 0.244181 0.765596
0.580846 0.244181 0.765596
0.675623 0.244181 0.765596
0.765596 0.244181 0.765596
0.845685 0.246960 0.758928
0.029487 0.373141 0.753054
0.133239 0.370287 0.761755
0.244181 0.364607 0.765596
0.359026 0.359026 0.763694
0.473482 0.359026 0.763694
0.577249 0.359026 0.763694
0.672896 0.359026 0.763694
0.763694 0.359026 0.763694
0.844705 0.360883 0.757344
0.029487 0.480595 0.753054
0.133239 0.481010 0.761755
0.244181 0.478023 0.765596
0.359026 0.473482 0.763694
0.467758 0.467758 0.761330
0.572726 0.467758 0.761330
0.666146 0.463895 0.761426
0.758329 0.463912 0.758329
0.840514 0.464598 0.752329
0.029487 0.578014 0.753054
0.133239 0.581392 0.761755
0.239871 0.580963 0.765658
0.354825 0.573849 0.760720
0.463912 0.569295 0.758329
0.563621 0.563621 0.755404
0.662062 0.563621 0.755404
0.755404 0.563621 0.755404
0.839000 0.559466 0.749872
0.025771 0.664290 0.749546
0.129267 0.670545 0.758422
0.239806 0.672519 0.762643
0.354825 0.669770 0.760720
0.463912 0.666326 0.758329
0.560145 0.658869 0.752370
0.653258 0.653258 0.748597
0.748597 0.653258 0.748597
0.833865 0.650867 0.743314
0.022061 0.749111 0.749111
0.125288 0.758180 0.758180
0.235604 0.759514 0.759514
0.350615 0.757744 0.757744
0.460051 0.755326 0.755326
0.560145 0.752370 0.752370
0.653258 0.748597 0.748597
0.740149 0.740149 0.740149
0.827882 0.735305 0.735305
0.022046 0.828921 0.745463
0.124906 0.838357 0.752534
0.238113 0.839882 0.753030
0.348115 0.835935 0.748419
0.456769 0.834614 0.746315
0.555908 0.832971 0.743680
0.647604 0.830849 0.740236
0.732196 0.824832 0.732196
0.824832 0.824832 0.732196
0.029459 0.029459 0.835949
0.142950 0.029459 0.835949
0.258792 0.029459 0.835949
0.372776 0.029459 0.835949
0.480126 0.029459 0.835949
0.577449 0.029459 0.835949
0.667157 0.029459 0.835949
0.752317 0.029459 0.835949
0.835949 0.029459 0.835949
0.029459 0.142950 0.835949
0.132802 0.132802 0.845059
0.251864 0.132802 0.845059
0.369016 0.132802 0.845059
0.479348 0.132802 0.845059
0.579376 0.132802 0.845059
0.671576 0.132802 0.845059
0.759103 0.132802 0.845059
0.845059 0.132802 0.845059
0.029459 0.258792 0.835949
0.132802 0.251864 0.845059
0.246960 0.246960 0.845685
0.365204 0.246960 0.845685
0.476565 0.246960 0.845685
0.577525 0.246960 0.845685
0.670585 0.246960 0.845685
0.758928 0.246960 0.845685
0.845685 0.246960 0.845685
0.029459 0.372776 0.835949
0.132802 0.369016 0.845059
0.246960 0.365204 0.845685
0.360883 0.360883 0.844705
0.473018 0.360883 0.844705
0.574680 0.360883 0.844705
0.668387 0.360883 0.844705
0.757344 0.360883 0.844705
0.844705 0.360883 0.844705
0.029459 0.480126 0.835949
0.132802 0.479348 0.845059
0.246960 0.476565 0.845685
0.360883 0.473018 0.844705
0.468491 0.468491 0.843464
0.571052 0.468491 0.843464
0.662415 0.464598 0.840514
0.752329 0.464598 0.840514
0.840514 0.464598 0.840514
0.029459 0.577449 0.835949
0.132802 0.579376 0.845059
0.242680 0.577617 0.845717
0.356634 0.571257 0.841781
0.464598 0.567588 0.840514
0.562960 0.562960 0.838935
0.658846 0.562960 0.838935
0.749765 0.562960 0.838935
0.839000 0.559466 0.839000
0.025749 0.663712 0.832438
0.128850 0.668249 0.841709
0.242537 0.667475 0.842783
0.356634 0.665249 0.841781
0.460763 0.662532 0.840566
0.559439 0.655626 0.835953
0.650867 0.650867 0.833865
0.743314 0.650867 0.833865
0.833865 0.650867 0.833865
0.022045 0.748547 0.831997
0.124893 0.755639 0.841446
0.238113 0.753030 0.839882
0.352378 0.751397 0.838858
0.460691 0.749323 0.837563
0.559439 0.746724 0.835953
0.647572 0.740093 0.833954
0.735305 0.735305 0.827882
0.827882 0.735305 0.827882
0.022046 0.828921 0.828921
0.124906 0.838357 0.838357
0.233828 0.839915 0.839915
0.348115 0.835935 0.835935
0.456769 0.834614 0.834614
0.555908 0.832971 0.832971
0.644300 0.830939 0.830939
0.732196 0.824832 0.824832
0.819966 0.819966 0.819966
