luts/Feed2026.cube
# Created by PresetStudio - DNG / XMP ⇄ 3D LUT (.cube) Maker, Converter & Profiler
# Compatible with DaVinci Resolve, Adobe Premiere Pro, Final Cut Pro, CapCut, OBS Studio, Photoshop
TITLE "Feed 2026"
LUT_3D_SIZE 5
DOMAIN_MIN 0.0 0.0 0.0
DOMAIN_MAX 1.0 1.0 1.0
0.033144 0.033144 0.033144
0.263550 0.029976 0.029976
0.483197 0.029639 0.029639
0.668637 0.029522 0.029522
0.835949 0.029459 0.029459
0.029976 0.263550 0.029976
0.263550 0.263550 0.029976
0.483197 0.260444 0.029639
0.668637 0.259365 0.029522
0.835949 0.258792 0.029459
0.029639 0.483197 0.029639
0.260444 0.483197 0.029639
0.483197 0.483197 0.029639
0.668637 0.481190 0.029522
0.835516 0.476292 0.025748
0.029522 0.668637 0.029522
0.255230 0.665023 0.025798
0.477246 0.665023 0.025798
0.664595 0.664595 0.022082
0.828921 0.660256 0.022046
0.022045 0.831997 0.022045
0.250666 0.828921 0.022046
0.472470 0.828921 0.022046
0.657293 0.826288 0.025750
0.826720 0.826720 0.029462
0.029976 0.029976 0.263550
0.263550 0.029976 0.263550
0.483197 0.029639 0.260444
0.668637 0.029522 0.259365
0.835949 0.029459 0.258792
0.029976 0.263550 0.263550
0.260382 0.260382 0.260382
0.490377 0.249697 0.249697
0.680133 0.245263 0.245263
0.845685 0.246960 0.246960
0.029639 0.483197 0.260444
0.249697 0.490377 0.249697
0.490377 0.490377 0.249697
0.680133 0.480962 0.245263
0.842783 0.472758 0.242537
0.025797 0.668218 0.259509
0.241121 0.676834 0.241121
0.477179 0.676834 0.241121
0.676783 0.676783 0.236922
0.839882 0.664358 0.238113
0.022045 0.831997 0.250660
0.238113 0.839882 0.238113
0.469054 0.839915 0.233828
0.661234 0.836980 0.233690
0.837014 0.837014 0.229402
0.029639 0.029639 0.483197
0.260444 0.029639 0.483197
0.483197 0.029639 0.483197
0.668637 0.029522 0.481190
0.835949 0.029459 0.480126
0.029639 0.260444 0.483197
0.249697 0.249697 0.490377
0.490377 0.249697 0.490377
0.680133 0.245263 0.480962
0.845685 0.246960 0.476565
0.029639 0.483197 0.483197
0.249697 0.490377 0.490377
0.479692 0.479692 0.479692
0.675366 0.469340 0.469340
0.840514 0.464598 0.464598
0.025797 0.668218 0.477224
0.241121 0.676834 0.477179
0.465522 0.672224 0.465522
0.669075 0.669075 0.461688
0.837563 0.659235 0.460691
0.022046 0.828921 0.472470
0.238113 0.839882 0.468936
0.456769 0.834614 0.456769
0.656049 0.834614 0.456769
0.831664 0.831664 0.452834
0.029522 0.029522 0.668637
0.259365 0.029522 0.668637
0.481190 0.029522 0.668637
0.668637 0.029522 0.668637
0.835949 0.029459 0.667157
0.029522 0.259365 0.668637
0.245263 0.245263 0.680133
0.480962 0.245263 0.680133
0.680133 0.245263 0.680133
0.845685 0.246960 0.670585
0.029522 0.481190 0.668637
0.245263 0.480962 0.680133
0.469340 0.469340 0.675366
0.675515 0.465424 0.675515
0.840514 0.464598 0.662415
0.025798 0.665023 0.665023
0.241121 0.676834 0.676834
0.465522 0.672224 0.672224
0.658621 0.658621 0.658621
0.833865 0.650867 0.650867
0.022046 0.828921 0.660256
0.238113 0.839882 0.664358
0.456769 0.834614 0.656049
0.647604 0.830849 0.647604
0.827833 0.827833 0.644334
0.029459 0.029459 0.835949
0.258792 0.029459 0.835949
0.480126 0.029459 0.835949
0.667157 0.029459 0.835949
0.835949 0.029459 0.835949
0.029459 0.258792 0.835949
0.246960 0.246960 0.845685
0.476565 0.246960 0.845685
0.670585 0.246960 0.845685
0.845685 0.246960 0.845685
0.029459 0.480126 0.835949
0.246960 0.476565 0.845685
0.468491 0.468491 0.843464
0.662415 0.464598 0.840514
0.840514 0.464598 0.840514
0.025749 0.663712 0.832438
0.242537 0.667475 0.842783
0.460763 0.662532 0.840566
0.650867 0.650867 0.833865
0.833865 0.650867 0.833865
0.022046 0.828921 0.828921
0.233828 0.839915 0.839915
0.456769 0.834614 0.834614
0.644300 0.830939 0.830939
0.819966 0.819966 0.819966
