luts/Feed2026.cube
# Created by PresetStudio - DNG / XMP ⇄ 3D LUT (.cube) Maker, Converter & Profiler
# Compatible with DaVinci Resolve, Adobe Premiere Pro, Final Cut Pro, CapCut, OBS Studio, Photoshop
TITLE "Feed 2026"
LUT_3D_SIZE 33
DOMAIN_MIN 0.0 0.0 0.0
DOMAIN_MAX 1.0 1.0 1.0
0.033144 0.033144 0.033144
0.063514 0.031752 0.031752
0.093108 0.031107 0.031107
0.118497 0.030767 0.030767
0.148246 0.030496 0.030496
0.178109 0.030305 0.030305
0.208036 0.030162 0.030162
0.233687 0.030066 0.030066
0.263550 0.029976 0.029976
0.293272 0.029903 0.029903
0.322774 0.029843 0.029843
0.347828 0.029800 0.029800
0.376712 0.029756 0.029756
0.405148 0.029719 0.029719
0.433054 0.029688 0.029688
0.456491 0.029664 0.029664
0.483197 0.029639 0.029639
0.509142 0.029618 0.029618
0.534384 0.029599 0.029599
0.555538 0.029585 0.029585
0.579701 0.029569 0.029569
0.603360 0.029555 0.029555
0.626565 0.029543 0.029543
0.646134 0.029532 0.029532
0.668637 0.029522 0.029522
0.690835 0.029512 0.029512
0.712783 0.029502 0.029502
0.731434 0.029495 0.029495
0.753054 0.029487 0.029487
0.774570 0.029479 0.029479
0.796037 0.029472 0.029472
0.814437 0.029466 0.029466
0.835949 0.029459 0.029459
0.031752 0.063514 0.031752
0.063514 0.063514 0.031752
0.088885 0.062275 0.031179
0.118497 0.061405 0.030767
0.148246 0.060839 0.030496
0.178109 0.060440 0.030305
0.203759 0.060182 0.030180
0.233687 0.059947 0.030066
0.263550 0.059762 0.029976
0.293272 0.059612 0.029903
0.318576 0.059505 0.029851
0.347828 0.059400 0.029800
0.376712 0.059311 0.029756
0.405148 0.059236 0.029719
0.429103 0.059179 0.029692
0.456491 0.059122 0.029664
0.483197 0.059072 0.029639
0.509142 0.059028 0.029618
0.530816 0.058995 0.029602
0.555538 0.058960 0.029585
0.579701 0.058928 0.029569
0.603360 0.058900 0.029555
0.623276 0.058878 0.029544
0.646134 0.058854 0.029532
0.668637 0.058832 0.029522
0.690835 0.058811 0.029512
0.709661 0.058795 0.029504
0.731434 0.054599 0.029495
0.753054 0.054584 0.029487
0.774570 0.054569 0.029479
0.796037 0.054555 0.029472
0.814437 0.054544 0.029466
0.835949 0.054531 0.029459
0.031179 0.088885 0.031179
0.062275 0.088885 0.031179
0.088885 0.088885 0.031179
0.118497 0.087623 0.030767
0.148246 0.086804 0.030496
0.178109 0.086228 0.030305
0.203759 0.085857 0.030180
0.233687 0.085518 0.030066
0.263550 0.085250 0.029976
0.293272 0.085035 0.029903
0.318576 0.084881 0.029851
0.347828 0.084730 0.029800
0.376712 0.084602 0.029756
0.405148 0.084494 0.029719
0.429103 0.084413 0.029692
0.456491 0.084330 0.029664
0.483197 0.084258 0.029639
0.509142 0.084196 0.029618
0.530816 0.084148 0.029602
0.555538 0.084097 0.029585
0.579701 0.084052 0.029569
0.603360 0.084011 0.029555
0.623276 0.083979 0.029544
0.646134 0.083945 0.029532
0.668637 0.083913 0.029522
0.690835 0.083884 0.029512
0.709661 0.083860 0.029504
0.731434 0.083835 0.029495
0.753054 0.083811 0.029487
0.774570 0.083788 0.029479
0.792971 0.083770 0.029473
0.814437 0.083749 0.029466
0.835949 0.083730 0.029459
0.030767 0.118497 0.030767
0.061405 0.118497 0.030767
0.087623 0.118497 0.030767
0.118497 0.118497 0.030767
0.148246 0.117380 0.030496
0.178109 0.116596 0.030305
0.203759 0.116090 0.030180
0.233687 0.115629 0.030066
0.263550 0.115266 0.029976
0.293272 0.114973 0.029903
0.318576 0.114764 0.029851
0.347828 0.114558 0.029800
0.376712 0.114385 0.029756
0.405148 0.114237 0.029719
0.429103 0.114127 0.029692
0.456491 0.114015 0.029664
0.483197 0.113918 0.029639
0.509142 0.113832 0.029618
0.530816 0.113767 0.029602
0.555538 0.113699 0.029585
0.579701 0.113637 0.029569
0.603360 0.113582 0.029555
0.623276 0.113539 0.029544
0.646134 0.113492 0.029532
0.668637 0.113449 0.029522
0.690835 0.113409 0.029512
0.709661 0.113377 0.029504
0.731434 0.113342 0.029495
0.753054 0.113310 0.029487
0.774570 0.113279 0.029479
0.792971 0.113254 0.029473
0.814437 0.113226 0.029466
0.835949 0.113200 0.029459
0.030496 0.148246 0.030496
0.060839 0.148246 0.030496
0.086804 0.148246 0.030496
0.117380 0.148246 0.030496
0.148246 0.148246 0.030496
0.178109 0.147252 0.030305
0.203759 0.146610 0.030180
0.233687 0.146026 0.030066
0.263550 0.145565 0.029976
0.293272 0.145194 0.029903
0.318576 0.144930 0.029851
0.347828 0.144669 0.029800
0.376712 0.144450 0.029756
0.405148 0.144263 0.029719
0.429103 0.144124 0.029692
0.456491 0.143982 0.029664
0.483197 0.143858 0.029639
0.509142 0.143750 0.029618
0.530816 0.143667 0.029602
0.555538 0.143581 0.029585
0.579701 0.143503 0.029569
0.603360 0.143433 0.029555
0.623276 0.143378 0.029544
0.646134 0.143319 0.029532
0.668637 0.143264 0.029522
0.690835 0.143214 0.029512
0.709661 0.143174 0.029504
0.731434 0.143130 0.029495
0.753054 0.143089 0.029487
0.774570 0.143050 0.029479
0.792971 0.143018 0.029473
0.814437 0.142983 0.029466
0.835949 0.142950 0.029459
0.030305 0.178109 0.030305
0.060440 0.178109 0.030305
0.086228 0.178109 0.030305
0.116596 0.178109 0.030305
0.147252 0.178109 0.030305
0.178109 0.178109 0.030305
0.203759 0.177331 0.030180
0.233687 0.176623 0.030066
0.263550 0.176065 0.029976
0.293272 0.175615 0.029903
0.318576 0.175294 0.029851
0.347828 0.174979 0.029800
0.376712 0.174713 0.029756
0.405148 0.174486 0.029719
0.429103 0.174317 0.029692
0.456491 0.174145 0.029664
0.483197 0.173996 0.029639
0.509142 0.173865 0.029618
0.530816 0.173765 0.029602
0.555538 0.173660 0.029585
0.579701 0.173566 0.029569
0.603360 0.173481 0.029555
0.623276 0.169114 0.029544
0.646134 0.169045 0.029532
0.668637 0.168980 0.029522
0.690835 0.168921 0.029512
0.709661 0.168873 0.029504
0.731434 0.173114 0.029495
0.753054 0.173063 0.029487
0.774570 0.173016 0.029479
0.792971 0.172978 0.029473
0.814437 0.172936 0.029466
0.835949 0.172895 0.029459
0.030180 0.203759 0.030180
0.060182 0.203759 0.030180
0.085857 0.203759 0.030180
0.116090 0.203759 0.030180
0.146610 0.203759 0.030180
0.177331 0.203759 0.030180
0.203759 0.203759 0.030180
0.233687 0.202944 0.030066
0.263550 0.202302 0.029976
0.293272 0.201784 0.029903
0.318576 0.201415 0.029851
0.347828 0.201052 0.029800
0.376712 0.200746 0.029756
0.405148 0.200486 0.029719
0.429103 0.200292 0.029692
0.456491 0.200094 0.029664
0.483197 0.199922 0.029639
0.509142 0.199771 0.029618
0.530816 0.199656 0.029602
0.555538 0.199536 0.029585
0.579701 0.199427 0.029569
0.603360 0.199330 0.029555
0.623276 0.199253 0.029544
0.646134 0.199170 0.029532
0.668637 0.199095 0.029522
0.690835 0.199024 0.029512
0.709661 0.198968 0.029504
0.731434 0.198907 0.029495
0.753054 0.198849 0.029487
0.774570 0.198795 0.029479
0.796037 0.198744 0.029472
0.814437 0.198702 0.029466
0.835949 0.198656 0.029459
0.030066 0.233687 0.030066
0.059947 0.233687 0.030066
0.085518 0.233687 0.030066
0.115629 0.233687 0.030066
0.146026 0.233687 0.030066
0.176623 0.233687 0.030066
0.202944 0.233687 0.030066
0.233687 0.233687 0.030066
0.263550 0.232947 0.029976
0.293272 0.232351 0.029903
0.318576 0.231925 0.029851
0.347828 0.231507 0.029800
0.376712 0.231154 0.029756
0.405148 0.230854 0.029719
0.429103 0.230630 0.029692
0.456491 0.230402 0.029664
0.483197 0.230204 0.029639
0.509142 0.230030 0.029618
0.530816 0.229898 0.029602
0.555538 0.229759 0.029585
0.579701 0.229634 0.029569
0.603360 0.229521 0.029555
0.623276 0.229433 0.029544
0.646134 0.229338 0.029532
0.668637 0.229250 0.029522
0.690835 0.229170 0.029512
0.709661 0.229105 0.029504
0.731434 0.229034 0.029495
0.753054 0.228968 0.029487
0.774570 0.228906 0.029479
0.796037 0.228847 0.029472
0.814437 0.228798 0.029466
0.835949 0.228745 0.029459
0.029976 0.263550 0.029976
0.059762 0.263550 0.029976
0.085250 0.263550 0.029976
0.115266 0.263550 0.029976
0.145565 0.263550 0.029976
0.176065 0.263550 0.029976
0.202302 0.263550 0.029976
0.232947 0.263550 0.029976
0.263550 0.263550 0.029976
0.293272 0.262875 0.029903
0.318576 0.262393 0.029851
0.347828 0.261919 0.029800
0.376712 0.261520 0.029756
0.405148 0.261180 0.029719
0.429103 0.260927 0.029692
0.456491 0.260668 0.029664
0.483197 0.260444 0.029639
0.509142 0.260247 0.029618
0.530816 0.260097 0.029602
0.555538 0.259940 0.029585
0.579701 0.259799 0.029569
0.603360 0.259671 0.029555
0.623276 0.259571 0.029544
0.646134 0.259463 0.029532
0.668637 0.259365 0.029522
0.690835 0.259273 0.029512
0.712783 0.259188 0.029502
0.731434 0.259120 0.029495
0.753054 0.259045 0.029487
0.774570 0.258974 0.029479
0.796037 0.258907 0.029472
0.814437 0.258853 0.029466
0.835949 0.258792 0.029459
0.029903 0.293272 0.029903
0.055373 0.293272 0.029903
0.085035 0.293272 0.029903
0.114973 0.293272 0.029903
0.145194 0.293272 0.029903
0.175615 0.293272 0.029903
0.201784 0.293272 0.029903
0.232351 0.293272 0.029903
0.262875 0.293272 0.029903
0.293272 0.293272 0.029903
0.318576 0.292734 0.029851
0.347828 0.292205 0.029800
0.376712 0.291759 0.029756
0.405148 0.291380 0.029719
0.429103 0.291097 0.029692
0.456491 0.290809 0.029664
0.483197 0.290558 0.029639
0.509142 0.290339 0.029618
0.530816 0.290171 0.029602
0.555538 0.289996 0.029585
0.579701 0.289838 0.029569
0.603360 0.289696 0.029555
0.623276 0.289584 0.029544
0.646134 0.289464 0.029532
0.668637 0.289353 0.029522
0.690835 0.289251 0.029512
0.712783 0.289157 0.029502
0.731434 0.289080 0.029495
0.753054 0.288996 0.029487
0.774570 0.288918 0.029479
0.796037 0.288843 0.029472
0.814437 0.288782 0.029466
0.835949 0.288715 0.029459
0.029851 0.318576 0.029851
0.055274 0.318576 0.029851
0.084881 0.318576 0.029851
0.114764 0.318576 0.029851
0.144930 0.318576 0.029851
0.170948 0.318576 0.029851
0.201415 0.318576 0.029851
0.231925 0.318576 0.029851
0.262393 0.318576 0.029851
0.292734 0.318576 0.029851
0.318576 0.318576 0.029851
0.347828 0.318000 0.029800
0.376712 0.317515 0.029756
0.405148 0.317101 0.029719
0.429103 0.316794 0.029692
0.456491 0.316480 0.029664
0.483197 0.316207 0.029639
0.509142 0.315968 0.029618
0.530816 0.315786 0.029602
0.555538 0.315595 0.029585
0.579701 0.315423 0.029569
0.603360 0.315268 0.029555
0.623276 0.315146 0.029544
0.646134 0.315016 0.029532
0.668637 0.314895 0.029522
0.690835 0.314784 0.029512
0.712783 0.314681 0.029502
0.731434 0.314598 0.029495
0.753054 0.314507 0.029487
0.774570 0.318653 0.029479
0.796037 0.318571 0.029472
0.814437 0.318504 0.029466
0.835949 0.318429 0.029459
0.029800 0.347828 0.029800
0.055177 0.347828 0.029800
0.084730 0.347828 0.029800
0.114558 0.347828 0.029800
0.144669 0.347828 0.029800
0.170640 0.347828 0.029800
0.201052 0.347828 0.029800
0.231507 0.347828 0.029800
0.261919 0.347828 0.029800
0.292205 0.347828 0.029800
0.318000 0.347828 0.029800
0.347828 0.347828 0.029800
0.376712 0.347297 0.029756
0.405148 0.346844 0.029719
0.429103 0.346508 0.029692
0.456491 0.346164 0.029664
0.483197 0.345866 0.029639
0.509142 0.345604 0.029618
0.530816 0.345405 0.029602
0.555538 0.345196 0.029585
0.579701 0.345008 0.029569
0.603360 0.344838 0.029555
0.626565 0.344684 0.029543
0.646134 0.344562 0.029532
0.668637 0.344430 0.029522
0.690835 0.344309 0.029512
0.712783 0.344196 0.029502
0.731434 0.344105 0.029495
0.753054 0.344005 0.029487
0.774570 0.343911 0.029479
0.796037 0.343823 0.029472
0.817506 0.343738 0.029465
0.835949 0.343669 0.029459
0.029756 0.376712 0.029756
0.055094 0.376712 0.029756
0.084602 0.376712 0.029756
0.114385 0.376712 0.029756
0.144450 0.376712 0.029756
0.174713 0.376712 0.029756
0.200746 0.376712 0.029756
0.231154 0.376712 0.029756
0.261520 0.376712 0.029756
0.291759 0.376712 0.029756
0.317515 0.376712 0.029756
0.347297 0.376712 0.029756
0.376712 0.376712 0.029756
0.405148 0.376221 0.029719
0.429103 0.375856 0.029692
0.456491 0.375483 0.029664
0.483197 0.375159 0.029639
0.509142 0.374876 0.029618
0.530816 0.374659 0.029602
0.555538 0.374432 0.029585
0.579701 0.374229 0.029569
0.603360 0.374044 0.029555
0.626565 0.373877 0.029543
0.646134 0.373745 0.029532
0.668637 0.373602 0.029522
0.690835 0.373470 0.029512
0.712783 0.373347 0.029502
0.734531 0.373233 0.029494
0.753054 0.373141 0.029487
0.774570 0.373039 0.029479
0.796037 0.372942 0.029472
0.817506 0.372851 0.029465
0.835949 0.372776 0.029459
0.029719 0.405148 0.029719
0.055024 0.405148 0.029719
0.084494 0.405148 0.029719
0.114237 0.405148 0.029719
0.144263 0.405148 0.029719
0.174486 0.405148 0.029719
0.200486 0.405148 0.029719
0.230854 0.405148 0.029719
0.261180 0.405148 0.029719
0.291380 0.405148 0.029719
0.317101 0.405148 0.029719
0.346844 0.405148 0.029719
0.376221 0.405148 0.029719
0.405148 0.405148 0.029719
0.429103 0.404754 0.029692
0.456491 0.404353 0.029664
0.483197 0.404004 0.029639
0.509142 0.403698 0.029618
0.534384 0.403429 0.029599
0.555538 0.403221 0.029585
0.579701 0.403001 0.029569
0.603360 0.402803 0.029555
0.626565 0.402623 0.029543
0.646134 0.402480 0.029532
0.668637 0.402327 0.029522
0.690835 0.402184 0.029512
0.712783 0.402052 0.029502
0.731434 0.401946 0.029495
0.753054 0.401830 0.029487
0.774570 0.401720 0.029479
0.796037 0.401616 0.029472
0.814437 0.401532 0.029466
0.835949 0.401437 0.029459
0.029692 0.429103 0.029692
0.054972 0.429103 0.029692
0.084413 0.429103 0.029692
0.114127 0.429103 0.029692
0.144124 0.429103 0.029692
0.174317 0.429103 0.029692
0.200292 0.429103 0.029692
0.230630 0.429103 0.029692
0.260927 0.429103 0.029692
0.291097 0.429103 0.029692
0.316794 0.429103 0.029692
0.346508 0.429103 0.029692
0.375856 0.429103 0.029692
0.404754 0.429103 0.029692
0.433054 0.433054 0.029688
0.456491 0.432690 0.029664
0.483197 0.432316 0.029639
0.509142 0.431989 0.029618
0.534384 0.431700 0.029599
0.555538 0.431478 0.029585
0.579701 0.431243 0.029569
0.603360 0.431031 0.029555
0.626565 0.430838 0.029543
0.646134 0.430685 0.029532
0.668637 0.430521 0.029522
0.690835 0.430369 0.029512
0.712783 0.430227 0.029502
0.731434 0.430114 0.029495
0.753054 0.426002 0.029487
0.774570 0.425885 0.029479
0.796037 0.425775 0.029472
0.814437 0.425686 0.029466
0.835949 0.425586 0.029459
0.029664 0.456491 0.029664
0.059122 0.456491 0.029664
0.084330 0.456491 0.029664
0.114015 0.456491 0.029664
0.143982 0.456491 0.029664
0.174145 0.456491 0.029664
0.200094 0.456491 0.029664
0.230402 0.456491 0.029664
0.260668 0.456491 0.029664
0.290809 0.456491 0.029664
0.316480 0.456491 0.029664
0.346164 0.456491 0.029664
0.375483 0.456491 0.029664
0.404353 0.456491 0.029664
0.432690 0.456491 0.029664
0.456491 0.456491 0.029664
0.483197 0.456096 0.029639
0.509142 0.455751 0.029618
0.534384 0.455447 0.029599
0.555538 0.455212 0.029585
0.579701 0.454964 0.029569
0.603360 0.454740 0.029555
0.626565 0.454536 0.029543
0.646134 0.454376 0.029532
0.668637 0.454202 0.029522
0.690835 0.454041 0.029512
0.712783 0.453892 0.029502
0.731434 0.453772 0.029495
0.753054 0.453641 0.029487
0.774570 0.453517 0.029479
0.792971 0.453416 0.029473
0.814437 0.453304 0.029466
0.835949 0.453197 0.029459
0.029639 0.483197 0.029639
0.059072 0.483197 0.029639
0.084258 0.483197 0.029639
0.113918 0.483197 0.029639
0.143858 0.483197 0.029639
0.173996 0.483197 0.029639
0.199922 0.483197 0.029639
0.230204 0.483197 0.029639
0.260444 0.483197 0.029639
0.290558 0.483197 0.029639
0.320463 0.483197 0.029639
0.345866 0.483197 0.029639
0.375159 0.483197 0.029639
0.404004 0.483197 0.029639
0.432316 0.483197 0.029639
0.456096 0.483197 0.029639
0.483197 0.483197 0.029639
0.509142 0.482832 0.029618
0.534384 0.482509 0.029599
0.555538 0.482260 0.029585
0.579701 0.481998 0.029569
0.603360 0.481760 0.029555
0.626565 0.481544 0.029543
0.646134 0.481374 0.029532
0.668637 0.481190 0.029522
0.690835 0.481020 0.029512
0.709661 0.480884 0.029504
0.731434 0.480735 0.029495
0.753054 0.480595 0.029487
0.774570 0.480464 0.029479
0.792541 0.480294 0.025759
0.814005 0.480189 0.025753
0.835516 0.476292 0.025748
0.029618 0.509142 0.029618
0.059028 0.509142 0.029618
0.084196 0.509142 0.029618
0.113832 0.509142 0.029618
0.143750 0.509142 0.029618
0.173865 0.509142 0.029618
0.199771 0.509142 0.029618
0.230030 0.509142 0.029618
0.260247 0.509142 0.029618
0.290339 0.509142 0.029618
0.320221 0.509142 0.029618
0.345604 0.509142 0.029618
0.374876 0.509142 0.029618
0.403698 0.509142 0.029618
0.431989 0.509142 0.029618
0.455751 0.509142 0.029618
0.482832 0.509142 0.029618
0.509142 0.509142 0.029618
0.534384 0.508802 0.029599
0.555538 0.508540 0.029585
0.579701 0.508263 0.029569
0.603360 0.508012 0.029555
0.623276 0.507816 0.029544
0.646134 0.507605 0.029532
0.668637 0.503714 0.029522
0.690835 0.503536 0.029512
0.709238 0.503239 0.025783
0.731009 0.503101 0.025776
0.752627 0.502972 0.025770
0.771072 0.502868 0.025764
0.792541 0.502752 0.025759
0.814005 0.502643 0.025753
0.832438 0.502553 0.025749
0.029599 0.534384 0.029599
0.058990 0.534384 0.029599
0.084140 0.534384 0.029599
0.113757 0.534384 0.029599
0.143654 0.534384 0.029599
0.173749 0.534384 0.029599
0.203957 0.534384 0.029599
0.229877 0.534384 0.029599
0.260074 0.534384 0.029599
0.290145 0.534384 0.029599
0.320007 0.534384 0.029599
0.345373 0.534384 0.029599
0.374625 0.534384 0.029599
0.403429 0.534384 0.029599
0.431700 0.534384 0.029599
0.455447 0.534384 0.029599
0.482553 0.530816 0.029602
0.508848 0.530816 0.029602
0.530816 0.530816 0.029602
0.555538 0.530494 0.029585
0.579701 0.530205 0.029569
0.603360 0.529944 0.029555
0.623276 0.529739 0.029544
0.645718 0.529268 0.025805
0.668218 0.529089 0.025797
0.687260 0.528947 0.025790
0.709238 0.528792 0.025783
0.731009 0.528647 0.025776
0.749546 0.528531 0.025771
0.771072 0.528402 0.025764
0.792541 0.528281 0.025759
0.814005 0.528165 0.025753
0.832438 0.528071 0.025749
0.029585 0.555538 0.029585
0.058960 0.555538 0.029585
0.088306 0.555538 0.029585
0.113699 0.555538 0.029585
0.143581 0.555538 0.029585
0.173660 0.555538 0.029585
0.203853 0.555538 0.029585
0.229759 0.555538 0.029585
0.259940 0.555538 0.029585
0.289996 0.555538 0.029585
0.315595 0.555538 0.029585
0.345196 0.555538 0.029585
0.374432 0.555538 0.029585
0.403221 0.555538 0.029585
0.427477 0.555538 0.029585
0.455212 0.555538 0.029585
0.482260 0.555538 0.029585
0.508540 0.555538 0.029585
0.530494 0.555538 0.029585
0.555133 0.555133 0.025845
0.579293 0.554865 0.025833
0.599598 0.554657 0.025824
0.622862 0.554434 0.025814
0.645718 0.554230 0.025805
0.665023 0.554069 0.025798
0.687260 0.553894 0.025790
0.709238 0.553731 0.025783
0.731009 0.550054 0.025776
0.749546 0.549932 0.025771
0.771072 0.549798 0.025764
0.792541 0.549672 0.025759
0.810937 0.549569 0.025754
0.832438 0.549454 0.025749
0.029569 0.579701 0.029569
0.058928 0.579701 0.029569
0.088258 0.579701 0.029569
0.113637 0.579701 0.029569
0.143503 0.579701 0.029569
0.173566 0.579701 0.029569
0.199427 0.579701 0.029569
0.229634 0.579701 0.029569
0.259799 0.579701 0.029569
0.289838 0.579701 0.029569
0.315423 0.579701 0.029569
0.345008 0.579701 0.029569
0.374229 0.579701 0.029569
0.403001 0.579701 0.029569
0.427244 0.579701 0.029569
0.454964 0.579701 0.029569
0.481743 0.579293 0.025833
0.504269 0.579293 0.025833
0.529875 0.579293 0.025833
0.554865 0.579293 0.025833
0.575874 0.575874 0.025835
0.599598 0.575619 0.025824
0.622862 0.575388 0.025814
0.645718 0.575177 0.025805
0.665023 0.575009 0.025798
0.687260 0.574827 0.025790
0.709238 0.574659 0.025783
0.727910 0.574523 0.025777
0.749546 0.574375 0.025771
0.771072 0.574235 0.025764
0.789476 0.574121 0.025760
0.810937 0.573995 0.025754
0.832438 0.573875 0.025749
0.029555 0.603360 0.029555
0.058900 0.603360 0.029555
0.084011 0.603360 0.029555
0.113582 0.603360 0.029555
0.143433 0.603360 0.029555
0.173481 0.603360 0.029555
0.199330 0.603360 0.029555
0.229521 0.603360 0.029555
0.259671 0.603360 0.029555
0.285417 0.603360 0.029555
0.315268 0.603360 0.029555
0.344838 0.603360 0.029555
0.374070 0.600009 0.029557
0.398648 0.599598 0.025824
0.426915 0.599598 0.025824
0.454581 0.599598 0.025824
0.477752 0.599598 0.025824
0.504080 0.599598 0.025824
0.529676 0.599598 0.025824
0.554657 0.599598 0.025824
0.575619 0.599598 0.025824
0.599598 0.599598 0.025824
0.622862 0.599357 0.025814
0.642475 0.599167 0.025806
0.665023 0.598962 0.025798
0.687260 0.598773 0.025790
0.706112 0.598622 0.025784
0.727910 0.598456 0.025777
0.749546 0.598302 0.025771
0.771072 0.598156 0.025764
0.789476 0.598038 0.025760
0.810937 0.594520 0.025754
0.832438 0.594396 0.025749
0.029543 0.626565 0.029543
0.058874 0.626565 0.029543
0.083974 0.626565 0.029543
0.113539 0.623276 0.029544
0.143378 0.623276 0.029544
0.169114 0.623276 0.029544
0.199253 0.623276 0.029544
0.229433 0.623276 0.029544
0.259571 0.623276 0.029544
0.285390 0.622862 0.025814
0.315185 0.622862 0.025814
0.344700 0.622862 0.025814
0.369713 0.622862 0.025814
0.398488 0.622862 0.025814
0.426744 0.622862 0.025814
0.454398 0.622862 0.025814
0.477561 0.622862 0.025814
0.503877 0.622862 0.025814
0.529463 0.622862 0.025814
0.550902 0.622862 0.025814
0.575388 0.622862 0.025814
0.599357 0.622862 0.025814
0.619565 0.619565 0.025815
0.642475 0.619334 0.025806
0.665023 0.619122 0.025798
0.687260 0.618927 0.025790
0.706112 0.618770 0.025784
0.727910 0.618599 0.025777
0.749546 0.618439 0.025771
0.771072 0.618289 0.025764
0.789038 0.617932 0.022053
0.810498 0.617815 0.022049
0.831997 0.617703 0.022045
0.029532 0.646134 0.029532
0.054670 0.646134 0.029532
0.083945 0.646134 0.029532
0.113492 0.646134 0.029532
0.143319 0.646134 0.029532
0.169045 0.646134 0.029532
0.199389 0.645718 0.025805
0.229514 0.645718 0.025805
0.255305 0.645718 0.025805
0.285285 0.645718 0.025805
0.315070 0.645718 0.025805
0.344574 0.645718 0.025805
0.369578 0.645718 0.025805
0.398341 0.645718 0.025805
0.426609 0.642475 0.025806
0.450345 0.642475 0.025806
0.477409 0.642475 0.025806
0.503718 0.642475 0.025806
0.525680 0.642475 0.025806
0.550728 0.642475 0.025806
0.575206 0.642475 0.025806
0.599167 0.642475 0.025806
0.619334 0.642475 0.025806
0.642475 0.642475 0.025806
0.665023 0.642256 0.025798
0.687260 0.642053 0.025790
0.705680 0.641544 0.022071
0.727476 0.641390 0.022066
0.749111 0.641247 0.022061
0.767565 0.641131 0.022058
0.789038 0.641002 0.022053
0.810498 0.640880 0.022049
0.831997 0.640765 0.022045
0.029522 0.668637 0.029522
0.054650 0.668637 0.029522
0.083913 0.668637 0.029522
0.113794 0.668218 0.025797
0.139301 0.668218 0.025797
0.169249 0.668218 0.025797
0.199322 0.668218 0.025797
0.229447 0.665023 0.025798
0.255230 0.665023 0.025798
0.285202 0.665023 0.025798
0.314978 0.665023 0.025798
0.340280 0.665023 0.025798
0.369470 0.665023 0.025798
0.398225 0.665023 0.025798
0.422464 0.665023 0.025798
0.450191 0.665023 0.025798
0.477246 0.665023 0.025798
0.503545 0.665023 0.025798
0.525500 0.665023 0.025798
0.550539 0.665023 0.025798
0.575009 0.665023 0.025798
0.595570 0.665023 0.025798
0.619122 0.665023 0.025798
0.641859 0.664595 0.022082
0.664595 0.664595 0.022082
0.683670 0.664438 0.022077
0.705680 0.664268 0.022071
0.727476 0.664109 0.022066
0.749111 0.663961 0.022061
0.767565 0.660616 0.022058
0.789038 0.660484 0.022053
0.810498 0.660359 0.022049
0.828921 0.660256 0.022046
0.025790 0.687260 0.025790
0.055061 0.687260 0.025790
0.084277 0.687260 0.025790
0.113764 0.687260 0.025790
0.139264 0.687260 0.025790
0.169204 0.687260 0.025790
0.199268 0.687260 0.025790
0.225074 0.687260 0.025790
0.255150 0.687260 0.025790
0.285112 0.687260 0.025790
0.310641 0.687260 0.025790
0.340173 0.687260 0.025790
0.369353 0.687260 0.025790
0.398100 0.687260 0.025790
0.422330 0.687260 0.025790
0.450049 0.687260 0.025790
0.477095 0.687260 0.025790
0.499680 0.687260 0.025790
0.525334 0.687260 0.025790
0.550389 0.684100 0.025791
0.574571 0.683670 0.022077
0.595099 0.683670 0.022077
0.618612 0.683670 0.022077
0.641708 0.683670 0.022077
0.664438 0.683670 0.022077
0.683670 0.683670 0.022077
0.705680 0.683495 0.022071
0.727476 0.683332 0.022066
0.746028 0.683200 0.022062
0.767565 0.683055 0.022058
0.789038 0.682918 0.022053
0.810498 0.682788 0.022049
0.828921 0.682682 0.022046
0.025783 0.709238 0.025783
0.055045 0.709238 0.025783
0.084252 0.709238 0.025783
0.109500 0.709238 0.025783
0.139223 0.709238 0.025783
0.169154 0.709238 0.025783
0.194912 0.709238 0.025783
0.225009 0.709238 0.025783
0.255075 0.709238 0.025783
0.285041 0.706112 0.025784
0.310563 0.706112 0.025784
0.340087 0.706112 0.025784
0.369260 0.706112 0.025784
0.393923 0.706112 0.025784
0.422224 0.706112 0.025784
0.449935 0.706112 0.025784
0.476846 0.705680 0.022071
0.499395 0.705680 0.022071
0.525009 0.705680 0.022071
0.550000 0.705680 0.022071
0.574424 0.705680 0.022071
